X:1
T:Das Walt’ Gott Vater, LM
T:Das Walt’ Gott Vater, LM
T:Daniel Vetter, 1713, adapted by Johann S. Bach
T:Public Domain Courtesy of the Cyber Hymnal™
C:Daniel Vetter, 1713, adapted by Johann S. Bach
Z:Public Domain
Z:Courtesy of the Cyber Hymnal™
%%score ( 1 2 ) ( 3 4 )
L:1/8
Q:1/4=105
M:none
K:Eb
V:1 treble 
V:2 treble 
V:3 bass 
V:4 bass 
V:1
 [B,E]2 | [EG]2 [EB]2 [DB]2 [DG]2 | E2 [B,F]2 !fermata![B,G]2 | [B,E]2 [EG]2 [FB]2 c2 [Bd]2 | %4
 (ed) z !fermata![FB]2 [FB]2 x | G2 [EB]2 [Ec]2 [EB]2 | A2 G2 !fermata!F2 [FA]2 | %7
 (GA) [EB]2 [EA]2 (GF) | E2 z z E2 x2 |] %9
V:2
 x2 | x8 | (CB,) x4 | x6 (G=A) x2 | B2 (c2 =A) x3 | (F E/D/) x6 | (FB,) (B,E) (ED) x2 | %7
 E2 x3 D2 x | C E2 (F2 D) E2 |] %9
V:3
 [E,G,]2 | [E,B,]2 B,2 [B,,F,]2 [=B,,G,]2 | [C,G,]2 [D,F,]2 !fermata!E,2 | %3
 [E,G,]2 [E,G,]2 z [C,E]2 D2 x | [E,G,G]2 [F,C]2 !fermata![B,,D]2 [D,B,]2 | %5
 [E,B,]2 B,2 (B,A,) (A,G,) | F,2 (G,>A,) !fermata![B,,B,]2 [D,B,]2 | %7
 [E,B,]2 [G,,B,]2 [A,,C]2 (B,A,) | [C,G,]2 (B,>A,) [E,G,]2 x2 |] %9
V:4
 x2 | x2 (G,,A,,) x4 | x4 E,2 | x4 (B,2 D,) x (F,E,) | x8 | x2 (G,E,) C,2 E,2 | E,D, E,2 x4 | %7
 x6 B,,2 | x2 B,,2 x4 |] %9

